X: 10282
T: MISS MARY Mc DONALD'S REEL
R: reel, strathspey
B: "Edinburgh Repository of Music" v.1 p.28 #1
F: http://digital.nls.uk/special-collections-of-printed-music/pageturner.cfm?id=87776133
Z: 2015 John Chambers <jc:trillian.mit.edu>
M: C
L: 1/8
K: G
B |\
G<GB>G A=FFA | G<GB>G AGBG |\
D>GBG A=FFA | GcBA G3 :|\
|: B |\
GGg_B A=FFA | G<Ggd gagd |\
=fgfc AFFA | (GcBA) G3 :|

%%sep 2 1 500
%%sep 1 1 500

